src/telerik-icons/solid/comments-remove.svg

<?xml version="1.0" encoding="utf-8"?>
<svg xmlns="http://www.w3.org/2000/svg" width="512" height="512" viewBox="0 0 512 512">
  <path d="M480 64c0-17.6-14.4-32-32-32H160c-17.6 0-32 14.4-32 32v32h32V64.1l.1-.1H448l.1.1V256l-.1.1h32V64zM377.4 400l22.6 22.6-57.4 57.4-22.6-22.6 57.4-57.4zm0 0L320 342.6l22.6-22.6 57.4 57.4-22.6 22.6zm45.2 0 57.4 57.4-22.6 22.6-57.4-57.4-22.6-22.6 22.6-22.6 57.4-57.4 22.6 22.6-57.4 57.4zm-304.3-16L64 420.2V160.1l.1-.1H352l.1.1V256h32v-96c0-17.6-14.4-32-32-32H64c-17.6 0-32 14.4-32 32v320l96-64h128v-32H118.3z"/>
</svg>

<?xml version="1.0" encoding="utf-8"?>
<!-- Generator: Adobe Illustrator 24.2.0, SVG Export Plug-In . SVG Version: 6.00 Build 0)  -->
<svg xmlns="http://www.w3.org/2000/svg" width="512" height="512" viewBox="0 0 512 512">
<path d="M480,64c0-17.6-14.4-32-32-32H160c-17.6,0-32,14.4-32,32v32h32V64.1c0,0,0,0,0.1-0.1h287.9c0,0,0,0,0.1,0.1v191.9
	c0,0,0,0-0.1,0.1H480V64z M377.4,400l22.6,22.6L342.6,480L320,457.4L377.4,400z M377.4,400L320,342.6l22.6-22.6l57.4,57.4L377.4,400
	z M422.6,400l57.4,57.4L457.4,480L400,422.6l0,0L377.4,400l22.6-22.6l0,0l57.4-57.4l22.6,22.6L422.6,400L422.6,400L422.6,400z
	 M118.3,384L64,420.2V160.1c0,0,0,0,0.1-0.1h287.9c0,0,0,0,0.1,0.1V256h32v-96c0-17.6-14.4-32-32-32H64c-17.6,0-32,14.4-32,32v320
	l96-64h128v-32H118.3z" />
</svg>
